X: 4136
T: GREGG'S PIPES
R: Reel.
%R: reel
B: James Kerr "Merry Melodies" v.4 p.16 #136
Z: 2016 John Chambers <jc:trillian.mit.edu>
M: C|
L: 1/8
K: Ador
c |\
eAcA eAcA | eAcA BEEc |\
eAcA eAcA | BdcA BEE |:\
d |\
c2(cB) cAAd | c2(cA) BEEd |\
[1 c2cA B2Bc | ABcA BEE :|\
[2 c/c/c (cA) BcBc |
ABcA BEEz |:\
EA,CA, EA,CA, | EA,CA, EFGF |\
EA,CA, EA,CA, | B,CDE CA,A,E :|\
GFEF GG,G,F | GFED EA,A,F |\
GFED EDCB, | A,B,CD EA,A, |]

%%sep 1 1 500
%%sep 1 1 500

